X:2044
T:Brando
C:Tre Martelli: Omi E Paiz 1a
M:6/8
L:1/8
K:G
DEF|GFG BAG| F2A ABc| ABc edc|B2G DEF|\
GFG BAG| F2A  ABc| ded cBA |1 G3:|2 G3 G3||
|:dBG D2D|ecA E2E|EFG ABc|def ~e2d|\
dBG D2D|ecA E2E|ABc ded|cBA G3:|


